X: 16020
T: Green Berries
R: hornpipe
M: 4/4
K: Gmajor
D2|GBAG FAGF|GBd2dDEF|GBAG FAGF|GBd2dBcd|
(3ede ce (3d^cd Bd|(3cBc Ac (3BAB GB|(3ABc (3BAG (3FGA (3DEF|(3GBc (3def g2:|
A2|A3F DFAc|BGdB (3gfe (3dcB|A3F DFAc|BGdB (3gfe (3dcB|
ecGE (3CEG (3ceg|dBGD (3B,DG (3Bdg|ecAG FAdF|G2d2g2:|

